material/.icons/material/radio-am.svg

<svg xmlns="http://www.w3.org/2000/svg" viewBox="0 0 24 24"><path d="M5 7a2 2 0 00-2 2v8h2v-4h2v4h2V9a2 2 0 00-2-2H5m0 2h2v2H5V9m8-2a2 2 0 00-2 2v8h2V9h2v7h2V9h2v8h2V9a2 2 0 00-2-2h-6z"/></svg>

<?xml version="1.0" encoding="UTF-8"?><!DOCTYPE svg PUBLIC "-//W3C//DTD SVG 1.1//EN" "http://www.w3.org/Graphics/SVG/1.1/DTD/svg11.dtd"><svg xmlns="http://www.w3.org/2000/svg" xmlns:xlink="http://www.w3.org/1999/xlink" version="1.1" id="mdi-radio-am" width="24" height="24" viewBox="0 0 24 24"><path d="M5,7A2,2 0 0,0 3,9V17H5V13H7V17H9V9A2,2 0 0,0 7,7H5M5,9H7V11H5V9M13,7A2,2 0 0,0 11,9V17H13V9H15V16H17V9H19V17H21V9A2,2 0 0,0 19,7H13Z" /></svg>
